X: 113
T: Winter and Spring
C: words: Anonymous.
C: music: G. M. M.
N: Copyright, 1916, by the Cable Company.
%R: air, march
B: "The Everyday Song Book", 1927
F: http://www.library.pitt.edu/happybirthday/pdf/The_Everyday_Song_Book.pdf
Z: 2017 John Chambers <jc:trillian.mit.edu>
M: 2/4
L: 1/8
K: D
% - - - - - - - - - - - - - - - - - - - - - - - - - - - - -
[| D E F G | A B A2 | D E F G | A B A2 |
w: 1.~Jan-u-a-ry brings the snow,            Makes our feet and fin-gers glow;
w: 2.~March brings breez-es loud and shrill, Stirs the danc-ing daf-fo-dil;
%
d c B A | G F E2 | F G A G | F E D2 |]
w: Feb-ru-a-ry brings the rain,      Thaws the fro-zen lake a-gain.
w: A-pril brings the prim-rose sweet, Scat-ters dai-sies at our feet.
% - - - - - - - - - - - - - - - - - - - - - - - - - - - - -
